src/components/00-materials/images-raw/Map & Pin Locator.svg

<svg width="96" height="96" viewBox="0 0 96 96" fill="none" xmlns="http://www.w3.org/2000/svg">
<path d="M36 75.61L39.8 52.25L36 75.61ZM60.05 81.79L58 55L60.05 81.79ZM66 31C66 28.503 65.4804 26.0334 64.4743 23.7481C63.4683 21.4628 61.9978 19.4118 60.1563 17.7255C58.3148 16.0392 56.1426 14.7545 53.7778 13.953C51.413 13.1515 48.9073 12.8508 46.42 13.07C35.82 13.96 28.42 24.16 30.29 34.64C30.6276 36.5238 31.2837 38.3364 32.23 40L47.08 63.53C47.1823 63.6764 47.3185 63.7961 47.4769 63.8786C47.6353 63.9612 47.8114 64.0044 47.99 64.0044C48.1687 64.0044 48.3447 63.9612 48.5031 63.8786C48.6616 63.7961 48.7977 63.6764 48.9 63.53L63.75 40C65.2779 37.2498 66.054 34.1456 66 31V31Z" stroke="#00008F" stroke-width="2" stroke-linecap="round" stroke-linejoin="round"/>
<path d="M48 39C52.4183 39 56 35.4183 56 31C56 26.5817 52.4183 23 48 23C43.5817 23 40 26.5817 40 31C40 35.4183 43.5817 39 48 39Z" stroke="#00008F" stroke-width="2" stroke-linecap="round" stroke-linejoin="round"/>
<path d="M39.24 51.13L23.13 53.93C22.8144 53.9801 22.5177 54.113 22.27 54.3149C22.0223 54.5169 21.8326 54.7809 21.72 55.08L14 80.37L34.83 75.86C35.5929 75.68 36.3871 75.68 37.15 75.86L58.76 81.58C59.5735 81.7883 60.4265 81.7883 61.24 81.58L82 76.4L74 51L58 55L54.67 54.39" stroke="#00008F" stroke-width="2" stroke-linecap="round" stroke-linejoin="round"/>
</svg>

<svg width="96" height="96" viewBox="0 0 96 96" fill="none" xmlns="http://www.w3.org/2000/svg"><path d="M36 75.61l3.8-23.36L36 75.61zm24.05 6.18L58 55l2.05 26.79zM66 31a17.998 17.998 0 00-19.58-17.93c-10.6.89-18 11.09-16.13 21.57A16.854 16.854 0 0032.23 40l14.85 23.53a1.11 1.11 0 001.82 0L63.75 40A17.9 17.9 0 0066 31v0z" stroke="#00008F" stroke-width="2" stroke-linecap="round" stroke-linejoin="round"/><path d="M48 39a8 8 0 100-16 8 8 0 000 16zM39.24 51.13l-16.11 2.8a1.81 1.81 0 00-1.41 1.15L14 80.37l20.83-4.51a5.051 5.051 0 012.32 0l21.61 5.72a5 5 0 002.48 0L82 76.4 74 51l-16 4-3.33-.61" stroke="#00008F" stroke-width="2" stroke-linecap="round" stroke-linejoin="round"/></svg>
